static/images/social/email.svg

<?xml version="1.0" encoding="UTF-8"?>
<svg version="1.1" xmlns="http://www.w3.org/2000/svg" width="343" height="342">
<path d="M0 0 C5.07817809 0.01710236 10.1558849 0.00692793 15.23404694 -0.01032257 C57.29156976 -0.13164388 104.58395691 0.91593131 138.5324707 29.39111328 C139.5430957 30.15423828 140.5537207 30.91736328 141.5949707 31.70361328 C149.85569266 39.26129507 155.34841819 48.59403781 160.5324707 58.39111328 C160.99524414 59.26123047 161.45801758 60.13134766 161.93481445 61.02783203 C167.9778309 73.32623931 171.3047325 87.0417945 173.7824707 100.45361328 C173.93337158 101.26548096 174.08427246 102.07734863 174.23974609 102.91381836 C176.90813748 118.38447515 177.85463723 133.85648702 177.8684082 149.53173828 C177.87487257 151.31361994 177.88160324 153.09550065 177.88858032 154.87738037 C177.90043919 158.58836311 177.90427347 162.29925362 177.90307617 166.01025391 C177.90291447 169.7428747 177.91668903 173.47500027 177.9440918 177.20751953 C178.25447283 220.1510324 177.84869722 272.96575652 145.97094727 306.00976562 C144.50491223 307.48463219 143.02177196 308.93979909 141.5324707 310.39111328 C140.78223633 311.15037109 140.03200195 311.90962891 139.2590332 312.69189453 C117.49316916 333.52724766 84.17943727 338.50484111 55.5324707 341.39111328 C54.6827771 341.4795752 53.8330835 341.56803711 52.9576416 341.65917969 C44.07827628 342.49761942 35.22684633 342.57296852 26.31762695 342.59423828 C25.50428831 342.59706566 24.69094967 342.59989304 23.8529644 342.60280609 C19.53364629 342.61771616 15.21436077 342.62699262 10.89501953 342.63134766 C7.39198189 342.63569795 3.88919531 342.64946647 0.38623047 342.67236328 C-42.42066335 342.94648675 -93.22504268 343.19879802 -127.4675293 313.39111328 C-128.06436523 312.92447266 -128.66120117 312.45783203 -129.27612305 311.97705078 C-151.9726726 293.88047007 -160.35995573 261.46381668 -163.76001358 234.0312748 C-165.20900597 221.07722825 -165.79251439 208.24302565 -165.8034668 195.21533203 C-165.8099326 193.34902354 -165.81666334 191.48271596 -165.82363892 189.6164093 C-165.83548746 185.73326276 -165.83933304 181.8502043 -165.83813477 177.96704102 C-165.83797292 174.06092676 -165.8517731 170.15528501 -165.87915039 166.24926758 C-166.18027327 122.62416618 -165.99594562 73.5844536 -136.4675293 38.39111328 C-136.02280273 37.80201172 -135.57807617 37.21291016 -135.11987305 36.60595703 C-130.53074069 30.73240279 -124.53551022 26.62857364 -118.4675293 22.39111328 C-117.34797852 21.58673828 -117.34797852 21.58673828 -116.20581055 20.76611328 C-82.96016393 -1.19869454 -38.12721142 -0.12967702 0 0 Z " fill="#BFBFBF" transform="translate(165.467529296875,-0.39111328125)"/>
<path d="M0 0 C15.31929199 14.42733904 26.07156467 35.07479585 27.22265625 56.1875 C27.25230469 57.21875 27.28195312 58.25 27.3125 59.3125 C27.35246094 60.50875 27.39242187 61.705 27.43359375 62.9375 C27.87054198 88.02346921 20.10744522 109.67356924 2.82080078 127.7890625 C-8.33770104 139.0595467 -21.81838896 146.18051023 -36.6875 151.3125 C-37.54601562 151.62058594 -38.40453125 151.92867187 -39.2890625 152.24609375 C-58.67073969 159.01995752 -80.58776655 155.63766949 -98.8984375 147.18359375 C-121.36205286 136.24606924 -137.82894134 118.10201302 -146.546875 94.7109375 C-146.92328125 93.58945313 -147.2996875 92.46796875 -147.6875 91.3125 C-148.07917358 90.24854004 -148.07917358 90.24854004 -148.47875977 89.16308594 C-150.91631715 82.03067866 -151.19045572 75.30922564 -151.125 67.8125 C-151.11597656 66.57725586 -151.10695313 65.34201172 -151.09765625 64.06933594 C-150.69368509 42.57470363 -144.30354313 25.05268304 -130.6875 8.3125 C-130.02363281 7.47332031 -129.35976562 6.63414063 -128.67578125 5.76953125 C-114.08736104 -11.62331724 -91.92823618 -21.89057378 -69.63671875 -24.43359375 C-43.28189017 -26.12801893 -20.01199747 -17.11700345 0 0 Z " fill="#36373B" transform="translate(230.6875,112.6875)"/>
<path d="M0 0 C9.27810154 7.27941754 15.46837921 18.24704792 17.97265625 29.6640625 C18.83740321 40.44775528 19.39204572 51.99921659 13.97265625 61.6640625 C13.48667969 62.53160156 13.00070313 63.39914063 12.5 64.29296875 C7.82950805 71.70171603 1.79607154 76.40001042 -6.08984375 80.1015625 C-11.58030851 81.15292809 -16.10027466 81.60870421 -21.21484375 79.1015625 C-24.53609659 76.22314337 -27.30325073 73.10298844 -30.02734375 69.6640625 C-30.45144531 70.05078125 -30.87554687 70.4375 -31.3125 70.8359375 C-37.62471247 76.44062725 -42.8793449 80.29468472 -51.5390625 80.8203125 C-57.33174729 80.45656463 -61.42677701 77.60114636 -65.33984375 73.4765625 C-70.74688296 66.48877685 -71.62252011 59.67095124 -70.65234375 51 C-68.51296666 39.5810748 -62.81548785 30.55112812 -53.36328125 23.74609375 C-48.0959967 20.47540526 -43.89284351 18.54067959 -37.6484375 18.53125 C-36.39691895 18.52834961 -36.39691895 18.52834961 -35.12011719 18.52539062 C-34.24387695 18.52990234 -33.36763672 18.53441406 -32.46484375 18.5390625 C-31.5718457 18.54099609 -30.67884766 18.54292969 -29.75878906 18.54492188 C-23.47527097 18.58600554 -17.26531948 18.86285461 -11.02734375 19.6640625 C-10.00441835 22.73283871 -10.02799995 23.93404236 -10.46459961 27.04370117 C-10.58479965 27.92438766 -10.70499969 28.80507416 -10.82884216 29.71244812 C-11.0334481 31.13289177 -11.0334481 31.13289177 -11.2421875 32.58203125 C-11.37677872 33.55441238 -11.51136993 34.52679352 -11.65003967 35.52864075 C-12.08183129 38.6372252 -12.5232196 41.74436119 -12.96484375 44.8515625 C-13.2590961 46.95759401 -13.55272374 49.0637129 -13.84570312 51.16992188 C-14.56566816 56.33567164 -15.293519 61.50026439 -16.02734375 66.6640625 C-14.26530986 66.43982421 -12.50671798 66.18843728 -10.75 65.92578125 C-9.77039307 65.78873779 -8.79078613 65.65169434 -7.78149414 65.51049805 C-3.70402267 64.25736503 -2.24802933 61.8035624 -0.1484375 58.24609375 C2.43360742 52.29929344 3.36221778 46.81895011 3.34765625 40.4140625 C3.34604492 39.67115967 3.34443359 38.92825684 3.34277344 38.1628418 C3.10540305 27.42648626 -0.8465575 18.51425126 -8.58984375 11.0390625 C-17.25169272 3.7210144 -28.98870178 1.7958547 -40.02734375 2.6640625 C-52.70325816 4.88561451 -63.83997764 9.99172853 -72.078125 20.20703125 C-80.79581189 33.14355591 -83.98556833 48.39046594 -81.53125 63.7734375 C-79.98560651 69.95601144 -77.53459863 75.35278859 -74.02734375 80.6640625 C-73.41632813 81.60572266 -73.41632813 81.60572266 -72.79296875 82.56640625 C-67.66837305 89.45446576 -58.58849264 93.75448134 -50.25390625 95.41796875 C-40.32267692 96.51563094 -31.10609209 95.38190549 -21.42578125 93.3203125 C-18.02734375 92.6640625 -18.02734375 92.6640625 -14.02734375 92.6640625 C-13.42510966 99.77042481 -13.42510966 99.77042481 -15.96484375 103.5390625 C-25.63015701 110.24560639 -41.59782446 109.52617764 -52.83984375 107.9765625 C-66.25341701 105.50832884 -78.21254141 99.17730148 -86.46484375 88.1640625 C-95.82094314 74.2444779 -99.34858325 59.26647341 -96.37109375 42.578125 C-92.75381247 25.29185453 -84.17640268 11.05255366 -69.83984375 0.6640625 C-68.25078607 -0.35977654 -66.64780501 -1.36256399 -65.02734375 -2.3359375 C-64.11662109 -2.91408203 -64.11662109 -2.91408203 -63.1875 -3.50390625 C-43.39188565 -14.80949782 -18.55120066 -12.22449061 0 0 Z " fill="#BDBDBD" transform="translate(209.02734375,128.3359375)"/>
<path d="M0 0 C0.62392235 10.39870586 -1.10567972 21.85774637 -8 30 C-10.75853638 32.82926808 -12.18119268 33.84960682 -16.0625 34.5625 C-19 34 -19 34 -21.15625 31.86328125 C-24.34841711 26.90595394 -23.57684406 21.69809378 -23 16 C-21.82550525 10.85029225 -19.06289267 7.32418491 -15 4 C-9.82237657 1.45660604 -5.73318817 0 0 0 Z " fill="#37383B" transform="translate(180,160)"/>
</svg>

<?xml version="1.0" encoding="UTF-8" standalone="no"?>
<svg
   version="1.1"
   width="343"
   height="342"
   id="svg10"
   sodipodi:docname="email.svg"
   inkscape:version="1.2.1 (9c6d41e410, 2022-07-14)"
   xmlns:inkscape="http://www.inkscape.org/namespaces/inkscape"
   xmlns:sodipodi="http://sodipodi.sourceforge.net/DTD/sodipodi-0.dtd"
   xmlns="http://www.w3.org/2000/svg"
   xmlns:svg="http://www.w3.org/2000/svg">
  <defs
     id="defs14" />
  <sodipodi:namedview
     id="namedview12"
     pagecolor="#ffffff"
     bordercolor="#000000"
     borderopacity="0.25"
     inkscape:showpageshadow="2"
     inkscape:pageopacity="0.0"
     inkscape:pagecheckerboard="0"
     inkscape:deskcolor="#d1d1d1"
     showgrid="false"
     inkscape:zoom="2.4239766"
     inkscape:cx="135.52111"
     inkscape:cy="171.20627"
     inkscape:window-width="1920"
     inkscape:window-height="1009"
     inkscape:window-x="-8"
     inkscape:window-y="-8"
     inkscape:window-maximized="1"
     inkscape:current-layer="svg10" />
  <path
     d="M0 0 C5.07817809 0.01710236 10.1558849 0.00692793 15.23404694 -0.01032257 C57.29156976 -0.13164388 104.58395691 0.91593131 138.5324707 29.39111328 C139.5430957 30.15423828 140.5537207 30.91736328 141.5949707 31.70361328 C149.85569266 39.26129507 155.34841819 48.59403781 160.5324707 58.39111328 C160.99524414 59.26123047 161.45801758 60.13134766 161.93481445 61.02783203 C167.9778309 73.32623931 171.3047325 87.0417945 173.7824707 100.45361328 C173.93337158 101.26548096 174.08427246 102.07734863 174.23974609 102.91381836 C176.90813748 118.38447515 177.85463723 133.85648702 177.8684082 149.53173828 C177.87487257 151.31361994 177.88160324 153.09550065 177.88858032 154.87738037 C177.90043919 158.58836311 177.90427347 162.29925362 177.90307617 166.01025391 C177.90291447 169.7428747 177.91668903 173.47500027 177.9440918 177.20751953 C178.25447283 220.1510324 177.84869722 272.96575652 145.97094727 306.00976562 C144.50491223 307.48463219 143.02177196 308.93979909 141.5324707 310.39111328 C140.78223633 311.15037109 140.03200195 311.90962891 139.2590332 312.69189453 C117.49316916 333.52724766 84.17943727 338.50484111 55.5324707 341.39111328 C54.6827771 341.4795752 53.8330835 341.56803711 52.9576416 341.65917969 C44.07827628 342.49761942 35.22684633 342.57296852 26.31762695 342.59423828 C25.50428831 342.59706566 24.69094967 342.59989304 23.8529644 342.60280609 C19.53364629 342.61771616 15.21436077 342.62699262 10.89501953 342.63134766 C7.39198189 342.63569795 3.88919531 342.64946647 0.38623047 342.67236328 C-42.42066335 342.94648675 -93.22504268 343.19879802 -127.4675293 313.39111328 C-128.06436523 312.92447266 -128.66120117 312.45783203 -129.27612305 311.97705078 C-151.9726726 293.88047007 -160.35995573 261.46381668 -163.76001358 234.0312748 C-165.20900597 221.07722825 -165.79251439 208.24302565 -165.8034668 195.21533203 C-165.8099326 193.34902354 -165.81666334 191.48271596 -165.82363892 189.6164093 C-165.83548746 185.73326276 -165.83933304 181.8502043 -165.83813477 177.96704102 C-165.83797292 174.06092676 -165.8517731 170.15528501 -165.87915039 166.24926758 C-166.18027327 122.62416618 -165.99594562 73.5844536 -136.4675293 38.39111328 C-136.02280273 37.80201172 -135.57807617 37.21291016 -135.11987305 36.60595703 C-130.53074069 30.73240279 -124.53551022 26.62857364 -118.4675293 22.39111328 C-117.34797852 21.58673828 -117.34797852 21.58673828 -116.20581055 20.76611328 C-82.96016393 -1.19869454 -38.12721142 -0.12967702 0 0 Z "
     fill="#BFBFBF"
     id="path2"
     transform="translate(165.467529296875,-0.39111328125)" />
  <g
     id="g246"
     transform="matrix(1.2726877,0,0,1.2726877,-45.746541,-54.949888)">
    <path
       d="m 0,0 c 15.319292,14.427339 26.071565,35.074796 27.222656,56.1875 0.02965,1.03125 0.0593,2.0625 0.08984,3.125 0.03996,1.19625 0.07992,2.3925 0.121094,3.625 0.436948,25.085969 -7.326149,46.73607 -24.6127932,64.85156 -11.1585018,11.27049 -24.6391898,18.39145 -39.5083008,23.52344 -0.858516,0.30809 -1.717031,0.61617 -2.601562,0.93359 -19.381678,6.77387 -41.298705,3.39158 -59.609375,-5.0625 -22.463609,-10.93752 -38.930499,-29.08158 -47.648429,-52.472653 -0.37641,-1.121484 -0.75282,-2.242968 -1.14063,-3.398437 -0.39167,-1.06396 -0.39167,-1.06396 -0.79126,-2.149414 -2.43756,-7.132407 -2.7117,-13.85386 -2.64624,-21.350586 0.009,-1.235244 0.018,-2.470488 0.0273,-3.743164 0.40397,-21.494632 6.79412,-39.016653 20.41016,-55.756836 0.66387,-0.8391797 1.32773,-1.6783594 2.01172,-2.5429688 C -114.0874,-11.623317 -91.92828,-21.890574 -69.636763,-24.433594 -43.28189,-26.128019 -20.011997,-17.117003 0,0 Z"
       fill="#36373b"
       transform="translate(230.6875,112.6875)"
       id="path4" />
    <path
       d="m 0,0 c 9.2781015,7.2794175 15.468379,18.247048 17.972656,29.664062 0.864747,10.783693 1.41939,22.335155 -4,32 C 13.48668,62.531602 13.000703,63.399141 12.5,64.292969 7.829508,71.701716 1.7960715,76.40001 -6.0898437,80.101562 c -5.4904653,1.051366 -10.0104313,1.507142 -15.1250003,-1 -3.321253,-2.878419 -6.088407,-5.998574 -8.8125,-9.4375 -0.424101,0.386719 -0.848203,0.773438 -1.285156,1.171875 -6.312212,5.60469 -11.566845,9.458748 -20.226562,9.984375 -5.792685,-0.363747 -9.887715,-3.219166 -13.800782,-7.34375 C -70.746883,66.488777 -71.62252,59.670951 -70.652344,51 c 2.139377,-11.418925 7.836856,-20.448872 17.289063,-27.253906 5.267284,-3.270689 9.470437,-5.205414 15.714844,-5.214844 1.251518,-0.0029 1.251518,-0.0029 2.52832,-0.0059 0.87624,0.0045 1.75248,0.009 2.655273,0.01367 0.892998,0.0019 1.785996,0.0039 2.706055,0.0059 6.283518,0.04108 12.49347,0.317933 18.731445,1.11914 1.022926,3.068777 0.999344,4.26998 0.562744,7.379639 -0.1202,0.880687 -0.2404,1.761373 -0.364242,2.668747 -0.204606,1.420444 -0.204606,1.420444 -0.413346,2.869583 -0.134591,0.972381 -0.269182,1.944763 -0.407852,2.94661 -0.431791,3.108584 -0.87318,6.21572 -1.314804,9.322921 -0.294252,2.106032 -0.58788,4.212151 -0.880859,6.31836 -0.719965,5.16575 -1.447816,10.330342 -2.181641,15.49414 1.762034,-0.224238 3.520626,-0.475625 5.277344,-0.738281 0.9796069,-0.137043 1.9592139,-0.274087 2.9685059,-0.415283 4.0774714,-1.253133 5.5334648,-3.706936 7.6330566,-7.264404 2.5820449,-5.946799 3.5106553,-11.427142 3.4960938,-17.83203 -0.00161,-0.742902 -0.00322,-1.485805 -0.00488,-2.25122 C 3.1054031,27.426486 -0.8465575,18.514251 -8.5898438,11.039063 -17.251693,3.7210144 -28.988702,1.7958547 -40.027344,2.6640625 c -12.675914,2.221552 -23.812634,7.327666 -32.050781,17.5429685 -8.717687,12.936525 -11.907443,28.183435 -9.453125,43.566406 1.545643,6.182574 3.996651,11.579352 7.503906,16.890625 0.611016,0.941661 0.611016,0.941661 1.234375,1.902344 5.124596,6.88806 14.204476,11.188075 22.539063,12.851563 9.931229,1.097662 19.147814,-0.03606 28.828125,-2.097657 3.398437,-0.65625 3.398437,-0.65625 7.398437,-0.65625 0.602234,7.106363 0.602234,7.106363 -1.9375,10.874998 -9.665313,6.70655 -25.63298,5.98712 -36.875,4.4375 -13.413573,-2.46823 -25.372697,-8.799259 -33.625,-19.812498 -9.356099,-13.919584 -12.883739,-28.897589 -9.90625,-45.585937 3.617282,-17.28627 12.194691,-31.525571 26.53125,-41.9140625 1.589058,-1.02383904 3.192039,-2.0266265 4.8125,-3 0.910723,-0.5781445 0.910723,-0.5781445 1.839844,-1.1679688 C -43.391886,-14.809498 -18.551201,-12.224491 0,0 Z"
       fill="#bdbdbd"
       transform="translate(209.02734,128.33594)"
       id="path6" />
    <path
       d="m 0,0 c 0.62392235,10.398706 -1.1056797,21.857746 -8,30 -2.758536,2.829268 -4.181193,3.849607 -8.0625,4.5625 C -19,34 -19,34 -21.15625,31.863281 -24.348417,26.905954 -23.576844,21.698094 -23,16 -21.825505,10.850292 -19.062893,7.3241849 -15,4 -9.8223766,1.456606 -5.7331882,0 0,0 Z"
       fill="#37383b"
       transform="translate(180,160)"
       id="path8" />
  </g>
</svg>
